assets/Monkey face/Flat/monkey_face_flat.svg

<svg width="32" height="32" viewBox="0 0 32 32" fill="none" xmlns="http://www.w3.org/2000/svg">
<path d="M3 17L5.07426 12.2528C6.84639 8.55421 10.6249 6 15 6H17C21.3751 6 25.1536 8.55421 26.9257 12.2528L29 17V19C29 19 27.8002 21.4006 27.4315 22.5C25.9695 26.8592 21.8515 30 17 30H15C10.1955 30 6.11048 26.9198 4.61181 22.6265C4.21545 21.491 3 19 3 19V17Z" fill="#7D4533"/>
<path d="M7 13.9531C7 11.4765 9.00772 9.46875 11.4844 9.46875H20.5156C22.9923 9.46875 25 11.4765 25 13.9531V14.0938C25 15.6893 24.1668 17.0902 22.9117 17.885C22.9698 18.2481 23 18.6205 23 19C23 22.866 19.866 26 16 26C12.134 26 9 22.866 9 19C9 18.6205 9.0302 18.2481 9.08832 17.885C7.83324 17.0902 7 15.6893 7 14.0938V13.9531Z" fill="#E39D89"/>
<path d="M4 17.0001C4 15.2701 4.39939 13.6333 5.11099 12.177C2.74592 12.7924 1 14.9424 1 17.5001C1 19.8805 2.51216 21.9076 4.62827 22.6734C4.22142 21.5247 4 20.2882 4 19.0001V17.0001Z" fill="#E39D89"/>
<path d="M28 19.0001C28 20.2882 27.7786 21.5247 27.3717 22.6734C29.4878 21.9076 31 19.8805 31 17.5001C31 14.9424 29.2541 12.7924 26.889 12.177C27.6006 13.6333 28 15.2701 28 17.0001V19.0001Z" fill="#E39D89"/>
<path d="M16 25C18.2091 25 20 23.2091 20 21H12C12 23.2091 13.7909 25 16 25Z" fill="#BB1D80"/>
<path d="M13.6562 18C13.6562 17.4477 14.104 17 14.6562 17H17.2812C17.8335 17 18.2812 17.4477 18.2812 18C18.2812 18.5523 17.8335 19 17.2812 19H14.6562C14.104 19 13.6562 18.5523 13.6562 18Z" fill="#FF8687"/>
<path d="M12 15C12 14.4477 12.4477 14 13 14C13.5523 14 14 14.4477 14 15V16C14 16.5523 13.5523 17 13 17C12.4477 17 12 16.5523 12 16V15Z" fill="#1C1C1C"/>
<path d="M18 15C18 14.4477 18.4477 14 19 14C19.5523 14 20 14.4477 20 15V16C20 16.5523 19.5523 17 19 17C18.4477 17 18 16.5523 18 16V15Z" fill="#1C1C1C"/>
<path d="M15.3984 18.3555C15.3984 18.6295 15.1763 18.8516 14.9023 18.8516C14.6284 18.8516 14.4062 18.6295 14.4062 18.3555C14.4062 18.0815 14.6284 17.8594 14.9023 17.8594C15.1763 17.8594 15.3984 18.0815 15.3984 18.3555Z" fill="#1C1C1C"/>
<path d="M17.5742 18.3555C17.5742 18.6295 17.3521 18.8516 17.0781 18.8516C16.8041 18.8516 16.582 18.6295 16.582 18.3555C16.582 18.0815 16.8041 17.8594 17.0781 17.8594C17.3521 17.8594 17.5742 18.0815 17.5742 18.3555Z" fill="#1C1C1C"/>
</svg>

<svg xmlns="http://www.w3.org/2000/svg" width="32" height="32" fill="none"><path fill="#7D4533" d="m3 17 2.074-4.747A11.001 11.001 0 0 1 15 6h2a11 11 0 0 1 9.926 6.253L29 17v2s-1.2 2.4-1.569 3.5C25.97 26.86 21.852 30 17 30h-2c-4.805 0-8.89-3.08-10.388-7.373C4.215 21.49 3 19 3 19v-2Z"/><path fill="#E39D89" d="M7 13.953a4.484 4.484 0 0 1 4.484-4.484h9.032A4.484 4.484 0 0 1 25 13.953v.14a4.48 4.48 0 0 1-2.088 3.792 7 7 0 1 1-13.823 0A4.48 4.48 0 0 1 7 14.094v-.14ZM4 17c0-1.73.4-3.367 1.111-4.823a5.502 5.502 0 0 0-.483 10.496A10.982 10.982 0 0 1 4 19v-2ZM28 19a10.98 10.98 0 0 1-.628 3.673 5.502 5.502 0 0 0-.483-10.496A10.956 10.956 0 0 1 28 17v2Z"/><path fill="#BB1D80" d="M16 25a4 4 0 0 0 4-4h-8a4 4 0 0 0 4 4Z"/><path fill="#FF8687" d="M13.656 18a1 1 0 0 1 1-1h2.625a1 1 0 1 1 0 2h-2.625a1 1 0 0 1-1-1Z"/><path fill="#1C1C1C" d="M12 15a1 1 0 1 1 2 0v1a1 1 0 1 1-2 0v-1ZM18 15a1 1 0 1 1 2 0v1a1 1 0 1 1-2 0v-1ZM15.398 18.355a.496.496 0 1 1-.992 0 .496.496 0 0 1 .992 0ZM17.574 18.355a.496.496 0 1 1-.992 0 .496.496 0 0 1 .992 0Z"/></svg>
